img/service__01.svg

<svg width="38" height="30" viewBox="0 0 38 30" fill="none" xmlns="http://www.w3.org/2000/svg">
<path d="M5.12101 11.1032H10.8721C11.2819 11.1032 11.6143 10.7709 11.6143 10.361C11.6143 9.95121 11.2819 9.61886 10.8721 9.61886H5.12101C4.71117 9.61886 4.37882 9.95121 4.37882 10.361C4.37882 10.7709 4.7111 11.1032 5.12101 11.1032Z" fill="white"/>
<path d="M5.12101 16.2428H10.8721C11.2819 16.2428 11.6143 15.9105 11.6143 15.5006C11.6143 15.0908 11.2819 14.7584 10.8721 14.7584H5.12101C4.71117 14.7584 4.37882 15.0908 4.37882 15.5006C4.37882 15.9105 4.7111 16.2428 5.12101 16.2428Z" fill="white"/>
<path d="M12.2496 28.6832C12.094 28.31 11.655 28.1267 11.2803 28.2818C10.9068 28.4364 10.7246 28.878 10.8795 29.2511C11.0346 29.6248 11.4741 29.8071 11.8481 29.6526C12.2214 29.4985 12.4049 29.0563 12.2496 28.6832Z" fill="white"/>
<path d="M37.8009 17.1983L28.973 7.72209L31.6759 5.0255C32.1453 4.56127 32.4039 3.94184 32.4039 3.28136C32.4039 2.63009 32.1517 2.01705 31.6942 1.55533C30.7476 0.599395 29.1897 0.587075 28.2212 1.52809C28.2188 1.53039 28.2165 1.5327 28.2141 1.535L24.5083 5.23191H23.1237V2.38168C23.1237 1.97185 22.7913 1.6395 22.3815 1.6395H18.4514V1.0332C18.4514 0.623368 18.119 0.291016 17.7092 0.291016C17.2994 0.291016 16.967 0.623368 16.967 1.0332V1.6395H14.2557V1.0332C14.2557 0.623368 13.9234 0.291016 13.5135 0.291016C13.1037 0.291016 12.7713 0.623368 12.7713 1.0332V1.6395H10.06V1.0332C10.06 0.623368 9.72763 0.291016 9.31779 0.291016C8.90796 0.291016 8.57561 0.623368 8.57561 1.0332V1.6395H5.86417V1.0332C5.86417 0.623368 5.53182 0.291016 5.12198 0.291016C4.71215 0.291016 4.3798 0.623368 4.3798 1.0332V1.6395H0.742188C0.332352 1.6395 0 1.97185 0 2.38168V28.9668C0 29.3767 0.332352 29.709 0.742188 29.709H8.31784C8.72768 29.709 9.06003 29.3767 9.06003 28.9668C9.06003 28.557 8.72768 28.2247 8.31784 28.2247H1.48438V3.12387H4.3798V3.79726C4.3798 4.20709 4.71215 4.53945 5.12198 4.53945C5.53182 4.53945 5.86417 4.20709 5.86417 3.79726V3.12387H8.57553V3.79726C8.57553 4.20709 8.90788 4.53945 9.31772 4.53945C9.72755 4.53945 10.0599 4.20709 10.0599 3.79726V3.12387H12.7713V3.79726C12.7713 4.20709 13.1036 4.53945 13.5135 4.53945C13.9233 4.53945 14.2556 4.20709 14.2556 3.79726V3.12387H16.9669V3.79726C16.9669 4.20709 17.2993 4.53945 17.7091 4.53945C18.1189 4.53945 18.4513 4.20709 18.4513 3.79726V3.12387H21.6392V5.23606C20.3061 5.29024 19.033 5.85319 18.0877 6.79317L12.6259 12.2549C12.2958 12.585 12.3571 13.1503 12.7476 13.403C13.3626 13.8008 14.0519 14.0579 14.7722 14.1616C15.0123 14.1962 15.2558 14.2137 15.5013 14.2137L15.5047 14.2136L14.6527 15.0636C14.5909 15.1253 14.5418 15.1972 14.5055 15.2747L12.1247 18.8509C11.9101 19.1732 11.8225 19.5411 11.8546 19.8978H5.12198C4.71215 19.8978 4.3798 20.2301 4.3798 20.6399C4.3798 21.0498 4.71215 21.3821 5.12198 21.3821H13.4807C13.8019 21.3821 14.1259 21.275 14.3904 21.0953L18.0093 18.6363C18.0521 18.6083 18.0934 18.5752 18.1296 18.5391L19.8081 16.8646L21.6393 18.6918V28.2247H14.8477C14.4378 28.2247 14.1055 28.557 14.1055 28.9668C14.1055 29.3767 14.4378 29.709 14.8477 29.709H22.3815C22.7913 29.709 23.1237 29.3767 23.1237 28.9668V20.1406C24.0619 20.9198 25.2318 21.3446 26.4671 21.3446H29.4282C30.044 21.3446 30.6411 21.6 31.0626 22.0413L36.7173 28.0505C37.167 28.5286 37.9999 28.1992 37.9999 27.5419V17.7042C38 17.5165 37.9288 17.3357 37.8009 17.1983ZM19.1375 7.84285C19.8563 7.12396 20.8408 6.71613 21.8574 6.71613H23.0202L18.396 11.3292C17.9681 11.74 17.5631 12.1426 17.0152 12.3965C16.2066 12.7713 15.2672 12.8311 14.4172 12.5629L19.1375 7.84285ZM29.2584 2.58994C29.6456 2.21692 30.264 2.22085 30.6396 2.60004C30.8201 2.78217 30.9195 3.02412 30.9195 3.28136C30.9195 3.54232 30.8174 3.78687 30.6299 3.97241L22.8733 11.7109L22.4995 11.3371C22.1495 10.9871 21.7078 10.73 21.2308 10.5981L29.2584 2.58994ZM13.5561 19.8675C13.4926 19.9107 13.4334 19.9058 13.3783 19.8511C13.2962 19.7698 13.3379 19.7072 13.3603 19.6735L15.2997 16.7604L16.4455 17.9043L13.5561 19.8675ZM17.6061 16.9647L16.2291 15.5877L17.6433 14.1767C17.7768 14.6599 18.0413 15.1011 18.3952 15.4549L18.7573 15.8162L17.6061 16.9647ZM36.5156 25.6703L32.1398 21.0202C31.4359 20.283 30.4475 19.8603 29.4282 19.8603H26.4671C25.4645 19.8603 24.5217 19.4707 23.8125 18.7634L19.4421 14.4026C18.8112 13.9295 18.9521 12.8805 19.4423 12.3827C19.9931 11.8467 20.9111 11.8478 21.4498 12.3866L25.0006 15.9374C25.2863 16.2229 25.7644 16.223 26.0503 15.9374C26.3401 15.6475 26.3401 15.1776 26.0503 14.8877L23.9229 12.7604L27.9215 8.7711L36.5156 17.9964V25.6703Z" fill="white"/>
</svg>

<svg width="38" height="30" fill="none" xmlns="http://www.w3.org/2000/svg"><path d="M5.121 11.103h5.751a.742.742 0 000-1.484H5.121a.742.742 0 000 1.484zm0 5.14h5.751a.742.742 0 000-1.485H5.121a.742.742 0 000 1.485zm7.129 12.44a.749.749 0 00-.97-.401.749.749 0 00-.4.97.748.748 0 00.968.4.749.749 0 00.402-.969z" fill="#fff"/><path d="M37.8 17.198l-8.827-9.476 2.703-2.697c.47-.464.728-1.083.728-1.744 0-.65-.252-1.264-.71-1.726a2.475 2.475 0 00-3.473-.027l-.007.007-3.706 3.697h-1.384v-2.85a.742.742 0 00-.742-.743h-3.93v-.606a.742.742 0 00-1.485 0v.607h-2.711v-.607a.742.742 0 00-1.485 0v.607H10.06v-.607a.742.742 0 00-1.484 0v.607H5.864v-.607a.742.742 0 00-1.484 0v.607H.742A.742.742 0 000 2.381v26.585c0 .41.332.742.742.742h7.576a.742.742 0 000-1.484H1.484v-25.1H4.38v.673a.742.742 0 001.484 0v-.673h2.712v.673a.742.742 0 001.484 0v-.673h2.711v.673a.742.742 0 001.485 0v-.673h2.71v.673a.742.742 0 001.485 0v-.673h3.188v2.112a5.365 5.365 0 00-3.551 1.557l-5.462 5.462a.749.749 0 00.122 1.148 5.047 5.047 0 002.753.81h.004l-.852.85a.743.743 0 00-.148.212l-2.38 3.576a1.62 1.62 0 00-.27 1.047H5.122a.742.742 0 000 1.484h8.359c.32 0 .645-.107.91-.287l3.618-2.459a.765.765 0 00.12-.097l1.68-1.674 1.83 1.827v9.533h-6.791a.742.742 0 100 1.484h7.533c.41 0 .743-.332.743-.742V20.14a5.205 5.205 0 003.343 1.204h2.961c.616 0 1.213.255 1.635.696l5.654 6.01c.45.478 1.283.148 1.283-.51v-9.837a.742.742 0 00-.2-.506zM19.139 7.843a3.859 3.859 0 012.72-1.127h1.162l-4.624 4.613c-.428.411-.833.814-1.38 1.067a3.627 3.627 0 01-2.599.167l4.72-4.72zm10.12-5.253a.986.986 0 011.382.01c.18.182.28.424.28.681a.964.964 0 01-.29.691l-7.757 7.739-.373-.374a2.894 2.894 0 00-1.27-.739l8.028-8.008zM13.556 19.868c-.063.043-.123.038-.178-.017-.082-.081-.04-.144-.018-.177l1.94-2.914 1.145 1.144-2.889 1.963zm4.05-2.903l-1.377-1.377 1.414-1.411c.134.483.398.924.752 1.278l.362.361-1.15 1.149zm18.91 8.705l-4.376-4.65a3.766 3.766 0 00-2.712-1.16h-2.96a3.735 3.735 0 01-2.655-1.097l-4.37-4.36c-.632-.473-.49-1.523 0-2.02.55-.536 1.468-.535 2.007.004l3.55 3.55a.75.75 0 001.05 0c.29-.29.29-.76 0-1.05l-2.127-2.127 3.999-3.989 8.594 9.225v7.674z" fill="#fff"/></svg>
